icons/bug-16.svg

<svg xmlns="http://www.w3.org/2000/svg" width="16" height="16" viewBox="0 0 16 16"><path d="M4.72.22a.75.75 0 011.06 0l1 .999a3.488 3.488 0 012.441 0l.999-1a.748.748 0 011.265.332.75.75 0 01-.205.729l-.775.776c.616.63.995 1.493.995 2.444v.327c0 .1-.009.197-.025.292.408.14.764.392 1.029.722l1.968-.787a.75.75 0 01.556 1.392L13 7.258V9h2.25a.75.75 0 010 1.5H13v.5c0 .409-.049.806-.141 1.186l2.17.868a.75.75 0 01-.557 1.392l-2.184-.873A4.997 4.997 0 018 16a4.997 4.997 0 01-4.288-2.427l-2.183.873a.75.75 0 01-.558-1.392l2.17-.868A5.036 5.036 0 013 11v-.5H.75a.75.75 0 010-1.5H3V7.258L.971 6.446a.75.75 0 01.558-1.392l1.967.787c.265-.33.62-.583 1.03-.722a1.677 1.677 0 01-.026-.292V4.5c0-.951.38-1.814.995-2.444L4.72 1.28a.75.75 0 010-1.06zm.53 6.28a.75.75 0 00-.75.75V11a3.5 3.5 0 107 0V7.25a.75.75 0 00-.75-.75zM6.173 5h3.654A.172.172 0 0010 4.827V4.5a2 2 0 10-4 0v.327c0 .096.077.173.173.173z"/></svg>

<svg xmlns="http://www.w3.org/2000/svg" width="16" height="16" viewBox="0 0 16 16">
  <defs/>
  <path d="M4.72,0.22 C5.013,-0.072 5.487,-0.072 5.78,0.22 L6.78,1.219 C7.567,0.925 8.434,0.925 9.221,1.219 L10.22,0.219 C10.408,0.024 10.687,-0.054 10.949,0.015 C11.212,0.084 11.416,0.288 11.485,0.551 C11.553,0.813 11.475,1.092 11.28,1.28 L10.505,2.056 C11.121,2.686 11.5,3.549 11.5,4.5 L11.5,4.827 C11.5,4.927 11.491,5.024 11.475,5.119 C11.883,5.259 12.239,5.511 12.504,5.841 L14.472,5.054 C14.852,4.919 15.271,5.108 15.42,5.482 C15.57,5.857 15.397,6.282 15.028,6.446 L13,7.258 L13,9 L15.25,9 C15.664,9 16,9.336 16,9.75 C16,10.164 15.664,10.5 15.25,10.5 L13,10.5 L13,11 C13,11.409 12.951,11.806 12.859,12.186 L15.029,13.054 C15.401,13.216 15.576,13.644 15.426,14.02 C15.275,14.396 14.853,14.585 14.472,14.446 L12.288,13.573 C11.385,15.079 9.757,16.001 8,16 C6.243,16.001 4.615,15.079 3.712,13.573 L1.529,14.446 C1.147,14.59 0.72,14.402 0.568,14.023 C0.416,13.644 0.595,13.214 0.971,13.054 L3.141,12.186 C3.047,11.798 3,11.4 3,11 L3,10.5 L0.75,10.5 C0.336,10.5 0,10.164 0,9.75 C0,9.336 0.336,9 0.75,9 L3,9 L3,7.258 L0.971,6.446 C0.595,6.286 0.416,5.856 0.568,5.477 C0.72,5.098 1.147,4.91 1.529,5.054 L3.496,5.841 C3.761,5.511 4.116,5.258 4.526,5.119 C4.509,5.023 4.5,4.925 4.5,4.827 L4.5,4.5 C4.5,3.549 4.88,2.686 5.495,2.056 L4.72,1.28 C4.428,0.987 4.428,0.513 4.72,0.22 Z M5.25,6.5 C4.836,6.5 4.5,6.836 4.5,7.25 L4.5,11 C4.5,12.933 6.067,14.5 8,14.5 C9.933,14.5 11.5,12.933 11.5,11 L11.5,7.25 C11.5,6.836 11.164,6.5 10.75,6.5 Z M6.173,5 L9.827,5 C9.923,5 10,4.923 10,4.827 L10,4.5 C10,3.395 9.105,2.5 8,2.5 C6.895,2.5 6,3.395 6,4.5 L6,4.827 C6,4.923 6.077,5 6.173,5 Z"/>
</svg>
